X: 61
T:Killarney Boys of Pleasure
R:Reel
H:Josie Nugent
M:4/4
L:1/8
Q:1/2=112
K:D
D|E2FD E2FA|BFAF DEFA|B2Bd e2fe|dBAF DEFD|
E2FD E2FA |B2AF DEFA|~B3d efec|[1 dBAd BAFD:|[2 dBAd BEFA|
|:Beed Beec|dBAF DEFA|dffe f2fe|
dBAF DEFA|Beed Beec|BdAF DEFA|
[1 dffe f2fe|dBAd BEFA:|[2 dffe dffe|dBAF E2z2|]
